!!!COM: Music21
!!!OTL: Foliada de Chantada
!!!OMV: pezas_foliadas_foliada-de-chantada_foliada-de-chantada-partitura.musicxml
**kern
*part1
*staff1
*I"Bagpipes
*I'Bag
*clefG^2
*k[]
*M3/4
=1
!LO:TX:a:t=Presto
*MM200
!LO:TX:a:t=[quarter]=200
4r
8eeL
8ffJ
8ggL
8aaJ
=||
4gg
8eeL
8ffJ
8ggL
8aaJ
=
4gg
8eeL
8ffJ
8ggL
8aaJ
=
4bb
4aa
4gg
=
4ff
8ddL
8eeJ
8ffL
8ggJ
=
4ff
8ddL
8eeJ
8ffL
8ggJ
=
4ff
8ddL
8eeJ
8ffL
8ggJ
!!linebreak:original
=
4aa
4gg
4ff
!!linebreak:original
=
4ee
8eeL
8ffJ
8ggL
8aaJ
=
8ggL
8ffJ
8eeL
8ffJ
8ggL
8aaJ
=
8ggL
8ffJ
8eeL
8ffJ
8ggL
8aaJ
=
12bbL
12ccc
12bbJ
12aaL
12bb
12aaJ
12ggL
12aa
12ggJ
=
8ffL
8eeJ
8ddL
8eeJ
8ffL
8ggJ
=
8ffL
8eeJ
8ddL
8eeJ
8ffL
8ggJ
!!linebreak:original
=
8ffL
8eeJ
8ddL
8eeJ
8ffL
8ggJ
=
12aaL
12bb
12aaJ
12ggL
12aa
12ggJ
12ffL
12gg
12ffJ
=
[2.ee
=
2.ee_
=||
4ee]
8bbL
8bbJ
4bb
=
4gg
4aa
4ccc
=
[4bb
16bbLL]
16ccc
16bb
16aaJJ
[4gg
=
2.gg_
!!linebreak:original
=
4gg]
8ggL
8ggJ
4gg
=||
4ee
4ff
4aa
=
4.gg
16aaLL
16ggJJ
[4ff
=
2.ff_
=
4ff]
8bbL
8bbJ
4bb
=
4gg
4aa
4ccc
=
[4bb
16bbLL]
16ccc
16bb
16aaJJ
[4gg
=
2.gg_
=
4gg]
8ggL
8ggJ
4gg
!!pagebreak:original
=
4ee
4ff
4aa
!!linebreak:original
=
4.gg
16aaLL
16ggJJ
4ff
=
4ff
4aa
4gg
=
4.ff
16ggLL
16ffJJ
[4ee
=
2.ee_
=
4ee]
8eeL
8eeJ
4ee
=
4cc
4dd
4ee
=||
4.dd
16eeLL
16ddJJ
[4cc
=
2.cc_
=
4cc]
8eeL
8ffJ
8ggL
8aaJ
!!pagebreak:original
=||
4.dd
16eeLL
16ddJJ
[4cc
=
2.cc_
=
4cc]
2r
==
*-
!!!system-decoration: s1,s2
